X:1862
T:Bourrée
C:MCTB 2/45
M:3/8
L:1/8
K:C
dg2|f/g/ag|fd/e/f|\
e/f/g2|a/g/fe|1 dd/e/c:|2 d2f||
ec2|d/e/dc|B/c/df|\
ec2|d/e/dB|1 c2f:|2 c2c||


